UnityPomodoro/Assets/AdrianMiasik/SVGs/icon-dark-adrian-miasik.svg

<svg clip-rule="evenodd" fill-rule="evenodd" stroke-linejoin="round" stroke-miterlimit="2" viewBox="0 0 64 64" xmlns="http://www.w3.org/2000/svg"><path d="m0 0h64v64h-64z" fill="none"/><circle cx="32" cy="32" fill="#fff" r="32"/><g transform="matrix(.0606206 0 0 .0606206 -21.9963 -2.73515)"><path d="m544.308 720h138.566l-69.283-120z" fill="#ff2121"/><g fill="#070707"><path d="m821.441 720-138.567-240 69.284-120 207.842 360z"/><path d="m890.724 360 207.846 360h138.57l-207.86-360z"/></g></g></svg>

<?xml version="1.0" encoding="UTF-8" standalone="no"?>
<!DOCTYPE svg PUBLIC "-//W3C//DTD SVG 1.1//EN" "http://www.w3.org/Graphics/SVG/1.1/DTD/svg11.dtd">
<svg width="100%" height="100%" viewBox="0 0 64 64" version="1.1" xmlns="http://www.w3.org/2000/svg" xmlns:xlink="http://www.w3.org/1999/xlink" xml:space="preserve" xmlns:serif="http://www.serif.com/" style="fill-rule:evenodd;clip-rule:evenodd;stroke-linejoin:round;stroke-miterlimit:2;">
    <g transform="matrix(1,0,0,1,0,-74)">
        <g id="Dark" transform="matrix(1,0,0,1,0,74)">
            <rect x="0" y="0" width="64" height="64" style="fill:none;"/>
            <circle cx="32" cy="32" r="32" style="fill:white;"/>
            <g id="Logo-Dark" serif:id="Logo Dark" transform="matrix(0.0606206,0,0,0.0606206,-21.9963,-2.73515)">
                <path id="_0-Dark" serif:id="0 Dark" d="M544.308,720L682.874,720L613.591,600L544.308,720Z" style="fill:rgb(255,33,33);"/>
                <path id="_1-Dark" serif:id="1 Dark" d="M821.441,720L682.874,480L752.158,360L960,720L821.441,720Z" style="fill:rgb(7,7,7);"/>
                <path id="_2-Dark" serif:id="2 Dark" d="M890.724,360L1098.57,720L1237.14,720L1029.28,360L890.724,360Z" style="fill:rgb(7,7,7);"/>
            </g>
        </g>
    </g>
</svg>
